X: 87
T:Castle Kelly
R:reel
Z:Barney
M:C|
L:1/8
K:Ador
A2 cA ~A2 cA| G2 EG ~G2 EG| A2 cA GAcd | ecdB cAAG|
A2 cA ~A2 cA|G2 EG ~G2 EG|A2 cA GAcd|ecdB cA A2:||
agec d2 ed|cAGE ~G2 EG|age^c d2 =cd|eaag ~a3 f|
ged^c d2 ed|cAGE G2 EG|A2 cA GAcd|ecdB cAA^g-|
agec d2 ed|cAGE ~G2 EG|age^c d2 =cd|eaag a2 ba|
gedc d=fed|cAGE G2 EG|A2 cA GAcd|ecdB cAAG||
